!!!COM: Gustav Mahler
!!!CNT: Deutsch
!!!TXO: Deutsch
!!!OTL: "Selbstgefu2hl"
!!!LYR: Des Knaben Wunderhorn
!!!OPR: Des Knaben Wunderhorn, Part 1
!!!ENC: O'Neal Douglas
!!!YOR: CD Sheet Music: Late Romantic German Lieder
!!!YOR: CD Sheet Music, LLC, 2001
!!!ODT: 1890/
!!NB: Vocal melody and text encoded.
**kern	**text
*staff1	*staff1
*clefG2	*
*k[b-]	*
*M3/4	*
*MM88	*
=0	=0
2r	.
{(8a	{Ich
8b-)	|
=1	=1
(8cc	weiss
8ff)	|
(8cc	nicht,
8a)	|
8b-	wie
8g	mir
=2	=2
(4f	ist!
8c)}	|}
{8a	{Ich
8g	bin
8f	nicht
=3	=3
8g	krank
8r	.
8r	.
8cc	und
8a	nicht
8f	ge-
=4	=4
8g	-sund,
8r	.
8r	.
8c	ich
8f	bin
8a	bles-
=5	=5
8b-	-sirt
8r	.
8r	.
8dd	und
8ff	hab'
8dd	kein
=6	=6
4cc}	Wund',}
4r	.
{(8dd	{ich
8ee)	|
=7	=7
(8ff	weis
8cc)	|
(8dd	nicht,
8a)	|
8b-	wie
8g	mir
=8	=8
(8a	ist!
8e	|
8f)	|
8e	Ich
8f	tha2t'
8d	gern
=9	=9
4e	es-
8G	-sen
8G	und
8d	schmeckt
8g	mir
=10	=10
8e}	nichts;}
8r	.
8r	.
{8g	{ich
8cc	hab'
8a	ein
=11	=11
(4g	Geld
8f)	|
8e	und
8f	gilt
8d	mir
=12	=12
8cc}	nichts,}
8r	.
8r	.
{8g	{ich
8a	hab'
8e	ein
=13	=13
(4g	Geld
8f)	|
8e	und
8f	gilt
8d	mir
=14	=14
(4.ee	nichts,
8dd)	|
(8cc	ich
8bn)	|
=15	=15
(8a	weiss
8cc)	|
(8f	nicht,
8a)	|
8Bn	wie
8d	mir
=16	=16
4c}	ist!}
8r	.
{8A	{Ich
8c	hab'
8a	so-
=17	=17
4.g	-gar
8c	kein'
8g	Schnupf-
8dd	-ta-
=18	=18
4cc}	-bak}
8r	.
{8f	{und
8ff	hab'
8ee	kein'
=19	=19
8dd	Kreu-
8cc	-zer
8dd	Geld
8b-	im
8dd	Sack,
8e	kein
=20	=20
8cc	Geld
8b-	im
8cc	Sack,
8c	ich
8f	hab'
8a	so-
=21	=21
4.g	-gar
8c	kein'
8g	Schnupf-
8dd	-ta-
=22	=22
4cc#}	-bak}
8r	.
{8cc#	{und
8ff	hab'
8ee	kein'
=23	=23
8dd	Kreu-
8cc	-zer
8b-	Geld
8dd	im
8e	Sack,
8g	kein'
=24	=24
8f	Kreu-
8c	-zer
8A	Geld
8c	im
8B-}	Sack!}
8r	.
=25	=25
2.r	.
=26	=26
4r	.
4r	.
{4A	{Ich
=27	=27
4d	weiss
4d	nicht,
8d	wie
8e	mir
=28	=28
2f	ist,
8d	wie
8e	mir
=29	=29
2f}	ist!}
4r	.
=30	=30
{4f	{Hei-
8f	-ra-
8f	-then
8f	tha2t'
8f	ich
=31	=31
8f	auch
8g	schon
4a	gern',
8r	.
8d	kann
=32	=32
8e	a-
8f	-ber
8g	Kin-
8A	-der-
8Bn	-schrei'n
8c#	nicht
=33	=33
8d}	ho2r'n,}
8r	.
{8a	{Kin-
8g#	-der-
8gn	-schrei'n
8f	nicht
=34	=34
4e	ho2r'n.
8r	.
8Bn	Ich
8e	weiss
8f#	nicht,
=35	=35
8g	wie
8e	mir
4.ee}	ist!}
8r	.
=36	=36
{4e	{Ich
4f	hab'
4g	erst
=37	=37
2f	heut'
4f	den
=38	=38
4g	Dok-
4a	-tor
4b-	ge-
=39	=39
2a}	-fragt,}
{4cc	{der
=40	=40
8bn	hat
8a	mir's
8b	in's
8gg	Ge-
8ff	-sicht
8dd	ge-
=41	=41
4cc}	-sagt:}
4r	.
{4e	{"Ich
=42	=42
4e	weiss
4e	wohl',
8e	was
8g	dir
=43	=43
2e	ist,
8e	was
8g	dir
=44	=44
2e}	ist:}
4r	.
=45	=45
2.r	.
=46	=46
2.r	.
=47	=47
4r	.
4r	.
{(8c	{Ein
8a)	|
=48	=48
4.g	Narr
8c	bist
8g	du
8dd	ge-
=49	=49
4cc}	-wiss!"}
8r	.
{8f	{"Nun
8ff	weiss
8ee	ich,
=50	=50
8dd	wie
8cc	mir
8dd	ist,
8b-	nun
8dd	weiss
8e	ich,
=51	=51
8cc	wie
8b-	mir
8cc}	ist,"}
8r	.
{(8c	{"ein
8a)	|
=52	=52
4.g	Narr
8d	bist
8g	du
8dd	ge-
=53	=53
4cc#}	-wiss!"}
8r	.
{8cc#	{"Nun
8ff	weiss
8ee	ich,
=54	=54
(8dd	wie
8cc)	|
(8b-	mir
8dd)	|
8e	ist,
8g	nun
=55	=55
8f	weiss
8c	ich,
8A	wie
8c	mir
8B-}	ist!"}
8r	.
=56	=56
2.r	.
=57	=57
2.r	.
==	==
*-	*-
